X:1
T:Callaway, CMD
T:Callaway, CMD
T:William Fiske Sherwin, 1889
T:Public Domain Courtesy of the Cyber Hymnal™
C:William Fiske Sherwin, 1889
Z:Public Domain
Z:Courtesy of the Cyber Hymnal™
%%score ( 1 2 ) ( 3 4 )
L:1/8
Q:1/4=110
M:4/4
K:Ab
V:1 treble 
V:2 treble 
V:3 bass 
V:4 bass 
V:1
 E2 | [EA]2 z [EA] [Ac]2 z [Ac] | [Ae]2 [Ac]2 [EA]3 [Ec] | [Fd]2 [Fd]2 [Ec]2 [EA]2 | [EB]6 [DE]2 | %5
 [CA]3 [CA] [Ec]3 [Ec] | [Ae]2 [Ac]2 [EA]3 [FB] | [Ec]2 [CE]2 [Ec]2 [DB]2 | [CA]6 E2 | %9
 [GB]3 =A [GB]3 [Ac] | [Bd]2 [Ac]2 [GB]3 [EG] | [EA]2 [EB]2 [Ec]2 [A=d]2 | [Ge]6 E2 | %13
 [EA]3 [EA] [Ac]3 [Ac] | [Ae]2 [Ec]2 [EA]3 [FB] | [Ec]2 [CE]2 [Ec]2 [DB]2 | [CA]6 |] %17
V:2
 E2 | x8 | x8 | x8 | x8 | x8 | x8 | x8 | x6 E2 | x3 ^F2 x3 | x8 | x8 | x6 E2 | x8 | x8 | x8 | x6 |] %17
V:3
 [A,C]2 | [A,C]2 z [A,C] [A,E]2 z [A,E] | [A,C]2 [A,E]2 [A,C]3 A, | [D,A,]2 [F,A,]2 A,2 [C,A,]2 | %4
 [E,G,]6 [E,G,]2 | [A,,A,]3 [A,,A,] A,3 A, | [A,C]2 [A,E]2 [A,C]3 [D,A,] | %7
 [E,A,]2 [E,A,]2 [E,A,]2 [E,G,]2 | [A,,A,]6 E,2 | E,3 E, E,3 E, | E,2 E,2 E,3 [D,B,] | %11
 [C,A,]2 [E,G,]2 A,2 [F,B,]2 | [E,B,]6 [A,C]2 | [A,C]3 [A,C] [A,E]3 [A,E] | %14
 [A,C]2 A,2 [C,A,]3 [D,A,] | [E,A,]2 [E,A,]2 [E,A,]2 [E,G,]2 | [A,,A,]6 |] %17
V:4
 x2 | x8 | x7 A, | x4 A,2 x2 | x8 | x4 A,3 A, | x8 | x8 | x6 E,2 | E,3 E, E,3 E, | E,2 E,2 E,3 x | %11
 x4 A,2 x2 | x8 | x8 | x2 A,2 x4 | x8 | x6 |] %17

